X:064
T:Blue Bells of Scotland - Adderbury
M:4/4
L:1/8
K:G
d2 | g4 f2 e2 | d4 e2 fg | B2 B2 c2 A2 | G6 :||
d2 | B2 G2 B2 d2 | g2 g2 e2 g2 | f2 d2 e2 ^c2 | d4 e2 f2 |
g2 g2 f2 e2 | d2 d2 e2 fg | B2 B2 c2 A2 | G6 ||
